svg/u1f595_1f3fb.svg

<svg viewBox="0 0 128 128" xmlns="http://www.w3.org/2000/svg" xmlns:xlink="http://www.w3.org/1999/xlink">
  <radialGradient id="c" cx="927.09" cy="26.957" gradientTransform="matrix(-1.0422 0 0 1 1025.8 0)" gradientUnits="userSpaceOnUse" r="74.733">
    <stop offset=".6" stop-color="#F9DDBD"/>
    <stop offset="1" stop-color="#EDC391"/>
  </radialGradient>
  <path d="m50.98 122.96c-3.16 0-6.86-1.72-6.86-6.57 0-5.09-0.42-10.72-5.45-13.19-3.46-1.7-12.44-13.2-13.11-22.8-0.4-5.7 1.91-6.53 6.09-8.03 0.42-0.15 0.85-0.3 1.28-0.46 1.07-0.4 1.07-0.4 0.93-8.93 0-5.96 2.32-9.28 7.1-10.13 0.47-0.08 0.98-0.12 1.53-0.12 1.71 0 3.47 0.41 4.75 0.7 0.89 0.21 1.53 0.35 2.05 0.35 1.82 0 2.64-1.39 2.75-2.32 0.01-0.06 0.01-0.11 0.01-0.17l0.07-38c0-3.62 2.15-7.52 6.87-7.52 4.44 0 7.09 2.8 7.09 7.5l0.84 37.15c0 0.09 0.01 0.18 0.03 0.27 0.33 1.59 0.68 2.51 1.61 2.79 0.3 0.09 0.61 0.13 0.94 0.13 0.59 0 1.15-0.13 1.79-0.29 0.83-0.2 1.86-0.45 3.29-0.45 0.87 0 1.81 0.09 2.81 0.28 2.92 0.54 4.55 2.27 5.86 3.65 0.94 0.99 1.75 1.85 2.87 2.07 0.35 0.07 0.69 0.1 1.05 0.1 0.68 0 1.32-0.12 2.07-0.26 1.19-0.23 2.67-0.51 5.26-0.51 4.33 0 7.99 3.34 7.99 7.28l-0.34 29.73c0 3.31-2.94 6.81-4.14 8.17-3.05 3.43-4.99 7.81-4.99 12.33v2.03c0 4.14-3.98 5.03-7.38 5.05l-34.66 0.17z" fill="url(#c)"/>
  <path d="m59 7h0.2c4.86 0 5.8 4.04 5.8 6.28v0.07l0.62 37.11c0 0.18-0.08 0.36-0.05 0.53 0.25 1.25 0.63 3.33 2.6 3.92 0.44 0.13 0.87 0.2 1.35 0.2 0.77 0 1.45-0.17 2.13-0.33 0.83-0.2 1.68-0.41 2.93-0.41 0.78 0 1.63 0.08 2.53 0.25 2.44 0.45 3.76 1.85 5.04 3.21 1.02 1.08 2.08 2.2 3.67 2.52 0.44 0.09 0.88 0.13 1.34 0.13 0.82 0 1.56-0.14 2.35-0.29 1.13-0.21 2.53-0.48 4.98-0.48 3.46 0 6.49 2.7 6.49 5.75l-0.34 29.78c0 1.93-1.25 4.6-3.51 7.15-3.29 3.7-5.12 8.43-5.12 13.3v0.05 1.98c0 0.91-0.22 3.55-6.13 3.57l-34.83 0.17c-2.59 0-5.38-1.33-5.38-5.07 0-4-0.01-11.44-6.3-14.54-3.15-1.55-11.66-12.61-12.28-21.56-0.32-4.57 0.93-5.02 5.09-6.51 0.42-0.15 0.86-0.31 1.3-0.47 1.98-0.74 1.97-2.47 1.97-4 0-0.71-0.01-1.66-0.02-2.61-0.02-1.85-0.05-3.7-0.05-3.7 0-6.84 3.34-8.23 5.86-8.68 0.38-0.07 0.81-0.1 1.27-0.1 1.54 0 3.2 0.38 4.41 0.66 0.98 0.23 1.7 0.39 2.38 0.39 2.51 0 4.03-1.83 4.24-3.64 0.01-0.11 0.02-0.23 0.02-0.34l0.07-38.14c0-2.23 1.13-6.16 5.37-6.16m-0.02-2.71c-5.49 0-8.37 4.4-8.37 9.02l-0.07 38s-0.11 0.99-1.26 0.99c-0.95 0-3.84-1.06-6.79-1.06-0.6 0-1.2 0.04-1.79 0.15-6.82 1.21-8.33 6.78-8.33 11.63 0 0 0.12 7.47 0.05 7.5-4.8 1.79-8.86 2.5-8.34 10 0.69 9.99 9.8 22 13.94 24.04s4.61 6.46 4.61 11.62c0 5.14 3.73 7.84 8.36 7.84h0.05l34.85 0.06c4.93-0.02 9.12-1.59 9.12-6.32v-2c0-4.17 1.54-8.19 4.36-11.36 0.8-0.9 4.32-5.02 4.32-9.14l0.31-29.76c0-4.85-4.44-8.78-9.5-8.78-4.32 0-5.86 0.77-7.33 0.77-0.25 0-0.5-0.02-0.76-0.07-1.79-0.36-3.4-4.74-8.75-5.73-1.19-0.22-2.2-0.3-3.08-0.3-2.63 0-4.02 0.74-5.08 0.74-0.18 0-0.35-0.02-0.51-0.07-0.25-0.08-0.57-1.65-0.57-1.65l-0.84-37.11c-0.01-5.27-3.1-9.01-8.6-9.01z" fill="#E6B77E"/>
  <defs>
    <path id="b" d="m32.34 71.87 0.24-0.03-0.22-8.84c0-4.85 1.52-10.42 8.33-11.63 3.5-0.62 7.44 0.91 8.59 0.91s1.26-0.99 1.26-0.99l0.07-38c0-4.62 2.88-9.02 8.37-9.02s8.59 3.74 8.59 9l0.84 37.11s0.32 1.57 0.57 1.65c1.46 0.44 3.32-1.36 8.67-0.37s6.96 5.37 8.75 5.73 3.03-0.7 8.08-0.7 9.49 3.93 9.49 8.78l-0.34 29.75c0 4.12-3.47 8.25-4.27 9.14-2.82 3.17-4.36 7.19-4.36 11.36v2c0 4.73-4.19 6.53-9.12 6.55l-34.8 0.17c-4.65 0.02-8.43-2.91-8.43-8.07s-0.49-9.81-4.63-11.85-12.39-12-13.19-21.98c-0.55-6.93 2.23-10.08 7.51-10.67z"/>
  </defs>
  <clipPath id="a">
    <use xlink:href="#b"/>
  </clipPath>
  <path clip-path="url(#a)" d="m40.46 84.54c-1.27 0.88-6.13-2.09-7.6-7.08-1.69-5.75-0.13-11.25-0.13-11.25s2.85 6.18 4.08 8.5c2.74 5.16 4.88 8.98 3.65 9.83z" fill="#E6B77E"/>
</svg>

<svg viewBox="0 0 128 128" xmlns="http://www.w3.org/2000/svg">
  <defs>
    <radialGradient id="c" cx="-57.174057" cy="26.957" gradientTransform="matrix(-1.0422 0 0 1 0 0)" gradientUnits="userSpaceOnUse" r="74.733">
      <stop offset=".6" stop-color="#F9DDBD"/>
      <stop offset="1" stop-color="#EDC391"/>
    </radialGradient>
  </defs>
  <path d="M50.98,122.96 C47.82,122.96 44.12,121.24 44.12,116.39 C44.12,111.3 43.7,105.67 38.67,103.2 C35.21,101.5 26.23,90 25.56,80.4 C25.16,74.7 27.47,73.87 31.65,72.37 C32.07,72.22 32.5,72.07 32.93,71.91 C34,71.51 34,71.51 33.86,62.98 C33.86,57.02 36.18,53.7 40.96,52.85 C41.43,52.77 41.94,52.73 42.49,52.73 C44.2,52.73 45.96,53.14 47.24,53.43 C48.13,53.64 48.77,53.78 49.29,53.78 C51.11,53.78 51.93,52.39 52.04,51.46 C52.05,51.4 52.05,51.35 52.05,51.29 L52.12,13.29 C52.12,9.67 54.27,5.77 58.99,5.77 C63.43,5.77 66.08,8.57 66.08,13.27 L66.92,50.42 C66.92,50.51 66.93,50.6 66.95,50.69 C67.28,52.28 67.63,53.2 68.56,53.48 C68.86,53.57 69.17,53.61 69.5,53.61 C70.09,53.61 70.65,53.48 71.29,53.32 C72.12,53.12 73.15,52.87 74.58,52.87 C75.45,52.87 76.39,52.96 77.39,53.15 C80.31,53.69 81.94,55.42 83.25,56.8 C84.19,57.79 85,58.65 86.12,58.87 C86.47,58.94 86.81,58.97 87.17,58.97 C87.85,58.97 88.49,58.85 89.24,58.71 C90.43,58.48 91.91,58.2 94.5,58.2 C98.83,58.2 102.49,61.54 102.49,65.48 L102.15,95.21 C102.15,98.52 99.21,102.02 98.01,103.38 C94.96,106.81 93.02,111.19 93.02,115.71 L93.02,117.74 C93.02,121.88 89.04,122.77 85.64,122.79 L50.98,122.96 Z" fill="url(#c)"/>
  <path d="M59,7 L59.2,7 C64.06,7 65,11.04 65,13.28 L65,13.35 L65.62,50.46 C65.62,50.64 65.54,50.82 65.57,50.99 C65.82,52.24 66.2,54.32 68.17,54.91 C68.61,55.04 69.04,55.11 69.52,55.11 C70.29,55.11 70.97,54.94 71.65,54.78 C72.48,54.58 73.33,54.37 74.58,54.37 C75.36,54.37 76.21,54.45 77.11,54.62 C79.55,55.07 80.87,56.47 82.15,57.83 C83.17,58.91 84.23,60.03 85.82,60.35 C86.26,60.44 86.7,60.48 87.16,60.48 C87.98,60.48 88.72,60.34 89.51,60.19 C90.64,59.98 92.04,59.71 94.49,59.71 C97.95,59.71 100.98,62.41 100.98,65.46 L100.64,95.24 C100.64,97.17 99.39,99.84 97.13,102.39 C93.84,106.09 92.01,110.82 92.01,115.69 L92.01,115.74 L92.01,117.72 C92.01,118.63 91.79,121.27 85.88,121.29 L51.05,121.46 C48.46,121.46 45.67,120.13 45.67,116.39 C45.67,112.39 45.66,104.95 39.37,101.85 C36.22,100.3 27.71,89.24 27.09,80.29 C26.77,75.72 28.02,75.27 32.18,73.78 C32.6,73.63 33.04,73.47 33.48,73.31 C35.46,72.57 35.45,70.84 35.45,69.31 C35.45,68.6 35.44,67.65 35.43,66.7 C35.41,64.85 35.38,63 35.38,63 C35.38,56.16 38.72,54.77 41.24,54.32 C41.62,54.25 42.05,54.22 42.51,54.22 C44.05,54.22 45.71,54.6 46.92,54.88 C47.9,55.11 48.62,55.27 49.3,55.27 C51.81,55.27 53.33,53.44 53.54,51.63 C53.55,51.52 53.56,51.4 53.56,51.29 L53.63,13.15 C53.63,10.92 54.76,6.99 59,6.99 M58.98,4.28 C53.49,4.28 50.61,8.68 50.61,13.3 L50.54,51.3 C50.54,51.3 50.43,52.29 49.28,52.29 C48.33,52.29 45.44,51.23 42.49,51.23 C41.89,51.23 41.29,51.27 40.7,51.38 C33.88,52.59 32.37,58.16 32.37,63.01 C32.37,63.01 32.49,70.48 32.42,70.51 C27.62,72.3 23.56,73.01 24.08,80.51 C24.77,90.5 33.88,102.51 38.02,104.55 C42.16,106.59 42.63,111.01 42.63,116.17 C42.63,121.31 46.36,124.01 50.99,124.01 L51.04,124.01 L85.89,124.07 C90.82,124.05 95.01,122.48 95.01,117.75 L95.01,115.75 C95.01,111.58 96.55,107.56 99.37,104.39 C100.17,103.49 103.69,99.37 103.69,95.25 L104,65.49 C104,60.64 99.56,56.71 94.5,56.71 C90.18,56.71 88.64,57.48 87.17,57.48 C86.92,57.48 86.67,57.46 86.41,57.41 C84.62,57.05 83.01,52.67 77.66,51.68 C76.47,51.46 75.46,51.38 74.58,51.38 C71.95,51.38 70.56,52.12 69.5,52.12 C69.32,52.12 69.15,52.1 68.99,52.05 C68.74,51.97 68.42,50.4 68.42,50.4 L67.58,13.29 C67.57,8.02 64.48,4.28 58.98,4.28 Z" fill="#E6B77E"/>
  <path d="M40.46,84.54 C39.19,85.42 34.33,82.45 32.86,77.46 C32.287,75.51 32.088,73.59 32.074,71.902 C32.162,71.891 32.251,71.88 32.34,71.87 L32.58,71.84 L32.469,67.386 C32.608,66.64 32.73,66.21 32.73,66.21 C32.73,66.21 35.58,72.39 36.81,74.71 C36.973,75.017 37.134,75.32 37.293,75.617 C39.793,80.315 41.617,83.741 40.46,84.54 Z" fill="#E6B77E"/>
</svg>
